X: 119
T: 119. Christ, unser Herr zum Jordan kam
N: Derived from chor119.krn
C: Johann Sebastian Bach
%%abc-version 2.0
%%abcx-abcm2ps-target-version 5.9.1 (29 Sep 2008)
%%abc-creator hum2abc beta
%%abcx-conversion-date 2019/03/11 17:28:18
%%abc-edited-by Craig Stuart Sapp
%%humdrum-veritas 3406028960
%%humdrum-veritas-data 431088589
%%
%%barnumbers 0
L: 1/4
M: C
%%staves [1 2 3 4]
V: 1 clef=treble
V: 2 clef=treble
V: 3 clef=treble-8
V: 4 clef=bass
K: Bb
[V:1] F/G/ [I:setbarnb 1]| 
[V:2] D | 
[V:3] B | 
[V:4] B,, | 
[V:1] _ABcB | 
[V:2] C/D/EE/F/G | 
[V:3] _AG_Ae/d/ | 
[V:4] F,E,_A,G,/F,/ | 
[V:1] ed/c/!fermata!cB | 
[V:2] GG!fermata!GG | 
[V:3] c=B!fermata!ed | 
[V:4] E,/F,/G,!fermata!C,G, | 
[V:1] edcB | 
[V:2] GG_A/G/F | 
[V:3] cd/=e/fF/G/ | 
[V:4] C_B,_A,D,/=E,/ | 
[V:1] _AG!fermata!FF/G/ | 
[V:2] C/F=E/!fermata!CC | 
[V:3] _A/B/c!fermata!_A_A/G/ | 
[V:4] F,C,!fermata!F,,F,/_E,/ | 
[V:1] _ABcB | 
[V:2] FG_AG | 
[V:3] F/_A/_dee/f/ | 
[V:4] _D,/C,/B,,_A,,E,/=D,/ | 
[V:1] e=d/c/!fermata!cB | 
[V:2] c=B!fermata!GG | 
[V:3] gg!fermata!e=d | 
[V:4] C,G,!fermata!CG, | 
[V:1] edcB | 
[V:2] G/c/ c/B/ B/_A/ G/=E/ | 
[V:3] cF/G/_AB | 
[V:4] C,D,/=E,/F,_D, | 
[V:1] _AG!fermata!FF | 
[V:2] F=E!fermata!CC | 
[V:3] cB/_A/!fermata!_A_A/G/ | 
[V:4] C,/B,,/C,!fermata!F,,F,/_E,/ | 
[V:1] BBGc | 
[V:2] F_E/D/ E/F/G | 
[V:3] FBBe | 
[V:4] =D,/C,/B,,E,D,/C,/ | 
[V:1] c=B!fermata!cc | 
[V:2] GG!fermata!GG | 
[V:3] d/c/d!fermata!ee | 
[V:4] G,G,,!fermata!C,C/_B,/ | 
[V:1] ffg/f/e | 
[V:2] c_BBc/B/ | 
[V:3] ede/d/c | 
[V:4] =A,B,E,_A,/G,/ | 
[V:1] f/e/d!fermata!cd | 
[V:2] _AD/E//F//!fermata!EG | 
[V:3] d/c/=B!fermata!G=B | 
[V:4] F,G,!fermata!C,G, | 
[V:1] edcB | 
[V:2] GFE/F/G | 
[V:3] c/_B/ _A/B/ c/d/ =e/f/ | 
[V:4] C,F,/G,/_A,G,/F,/ | 
[V:1] c/B/_A!fermata!GF/G/ | 
[V:2] CF!fermata!=EC | 
[V:3] gc!fermata!c_A/G/ | 
[V:4] =E,F,!fermata!C,F,/_E,/ | 
[V:1] _ABc/B/A | 
[V:2] FGG/=E/F | 
[V:3] F/_A/_dc_d | 
[V:4] _D,/C,/B,,_A,,D,/C,/ | 
[V:1] B/_A/G!fermata!Ff | 
[V:2] G/F/=E!fermata!Cc | 
[V:3] _dG/_A//B//!fermata!_AF | 
[V:4] B,,C,!fermata!F,,A, | 
[V:1] ffgf | 
[V:2] BBBc/F/ | 
[V:3] =d/_e/ f/d/ e/d/c | 
[V:4] B,/C/ D/B,/E,_A, | 
[V:1] ed!fermata!c |]  
[V:2] G3/F/!fermata!=E |]  
[V:3] c=B!fermata!G |]  
[V:4] G,/F,/G,/G,,/!fermata!C, |]  



